climatologia/src/assets/usgs.svg

<svg version="1.1" id="Layer_1" xmlns="http://www.w3.org/2000/svg" xmlns:xlink="http://www.w3.org/1999/xlink" x="0px" y="0px"
	 viewBox="0 0 500 500" style="enable-background:new 0 0 500 500;" xml:space="preserve">
<style type="text/css">
	.st0{fill:#007150;}
</style>
<g id="XMLID_1_">
	<path id="XMLID_7_" class="st0" d="M237.4,184.1v66c0,13.9-7.9,28.6-31.6,28.6c-21.4,0-31.7-11.1-31.7-28.6v-66h19.5v64.7
		c0,11.5,4.9,16,12,16c8.5,0,12.4-5.7,12.4-16v-64.7L237.4,184.1 M269.1,278.8c-24.1,0-28.6-14.2-27.6-30.3H261
		c0,8.9,0.4,16.4,11.1,16.4c6.6,0,9.8-4.3,9.8-10.6c0-16.8-39.2-17.8-39.2-45.5c0-14.6,7-26.2,30.7-26.2c19,0,28.4,8.5,27.1,28h-19
		c0-7-1.2-14.1-9-14.1c-6.3,0-10.1,3.5-10.1,9.9c0,17.7,39.2,16.1,39.2,45.4C301.6,276,283.9,278.8,269.1,278.8 M400,278.8
		c-24.1,0-28.6-14.2-27.6-30.3h19.5c0,8.9,0.4,16.4,11.1,16.4c6.6,0,9.8-4.3,9.8-10.6c0-16.8-39.2-17.8-39.2-45.5
		c0-14.6,7-26.2,30.7-26.2c19,0,28.4,8.5,27.1,28h-19c0-7-1.2-14.1-9-14.1c-6.3,0-10.1,3.5-10.1,9.9c0,17.7,39.2,16.1,39.2,45.4
		C432.5,276,414.8,278.8,400,278.8 M338,242.6h11.5v20.5l-1,0.4c-3,1-6.4,1.8-9.7,1.8c-11.1,0-13.9-5.2-13.9-34.3
		c0-18.1,0-34.4,12.1-34.4c9.4,0,11.4,6.4,11.6,14.1H368c0.2-18.1-11.5-28-29.8-28c-31.9,0-33,23.9-33,47.3c0,35.3,3.8,49,36.6,49
		c7.6,0,19.7-1.7,25.3-3.2c0.3-0.1,0.9-0.5,0.9-0.9v-46.3h-30L338,242.6"/>
	<path id="XMLID_15_" class="st0" d="M92.8,215.3l0.3,0.3c9.1,7.6,19,6.9,26.5,1.9c4.7-3.1,26.1-17.4,38.2-25.4v-8H67.7v21.2
		C73.2,204.4,82.1,205.3,92.8,215.3 M126.7,250.6l-10.6-10.2c-1.5-1.4-2.8-2.4-3-2.6c-8.7-6.1-16.8-4.3-20.3-3
		c-1.1,0.4-2.1,1-2.8,1.5l-22.2,14.9v26.9h90.1v-19.4C155.8,260,143.6,266.6,126.7,250.6 M92,217.7c-0.5-0.4-1-0.9-1.5-1.3
		c-10.6-8.2-20.7-4.2-22.8-3.2v9.3l5.2-3.5c0,0,8-6,20.5,0.2L92,217.7 M104.5,229.7c-0.5-0.4-0.9-0.8-1.4-1.3
		c-9.4-8-18.6-6-22.3-4.6c-1.1,0.4-2.1,1-2.8,1.5l-10.2,6.8v9.5l17-11.5c0,0,7.9-5.9,20.3,0L104.5,229.7 M157.8,239.7
		c-3.5,2.4-7.1,4.8-8.6,5.8c-3.2,2.1-10.6,7.5-23,1.6l1.5,1.4c0.5,0.5,1.2,1.1,1.9,1.6c8.9,6.6,18.3,5.7,25.4,1
		c1-0.7,1.9-1.2,2.7-1.8L157.8,239.7 M157.8,220.6c-7.8,5.2-18.3,12.3-20.3,13.6c-3.2,2.1-10.7,7.5-22.8,1.8l1.4,1.3
		c0.2,0.1,0.3,0.3,0.5,0.4l0,0l0,0c9.4,7.9,19.7,6.7,26.8,2c4-2.7,9.7-6.5,14.4-9.7L157.8,220.6 M157.8,201.6
		c-11.2,7.5-29.6,19.9-31.9,21.3c-3.2,2.2-10.9,7.6-22.8,1.9l1.4,1.4c0.9,0.8,2,1.8,3.3,2.6c8.3,5.3,16.9,4.3,23.9-0.4
		c5.1-3.4,17.5-11.6,26-17.3V201.6"/>
	<path id="XMLID_51_" class="st0" d="M72.3,305.8c-0.2,0.7-0.3,1.5-0.2,2c0.2,0.5,0.6,0.8,1.5,0.8c0.9,0,1.8-0.6,2.1-1.7
		c0.7-3.5-7.5-2.7-6.4-7.9c0.8-3.5,4.5-4.6,7.5-4.6c3.1,0,5.6,1.5,4.6,5h-4.5c0.2-1.1,0.3-1.8,0-2.1c-0.2-0.3-0.6-0.4-1.1-0.4
		c-1,0-1.7,0.7-1.9,1.8c-0.6,2.6,7.5,2.5,6.4,7.7c-0.6,2.9-3.4,5-7.2,5c-4,0-6.5-1-5.2-5.6H72.3 M91.9,300.5
		c0.5-2.4,0.1-3.3-1.4-3.3c-2,0-2.5,1.7-3.2,5.1c-1.1,5-0.9,6.1,0.8,6.1c1.4,0,2.4-1.3,2.8-3.4h4.6c-0.9,4.5-3.8,6.4-8.1,6.4
		c-5.9,0-5.9-3.6-4.8-8.8c1-4.5,2.4-8.3,8.5-8.3c4.2,0,6.2,1.9,5.3,6.2L91.9,300.5 M106.2,288.3l-0.8,3.6h-4.6l0.8-3.6H106.2
		 M101.4,311.1h-4.6l3.5-16.4h4.6L101.4,311.1L101.4,311.1z M321,288.3l-0.8,3.6h-4.6l0.8-3.6H321 M316.1,311.1h-4.6l3.5-16.4h4.6
		L316.1,311.1L316.1,311.1z M115,301c0.3-1.6,0.9-3.9-1.3-3.9c-2.1,0-2.6,2.5-2.9,3.9H115 M110.2,303.6c-0.4,2-1,4.9,1,4.9
		c1.6,0,2.3-1.6,2.6-2.9h4.7c-0.4,1.8-1.3,3.3-2.7,4.3c-1.3,1-3,1.6-5.2,1.6c-5.9,0-5.9-3.6-4.8-8.8c1-4.5,2.4-8.3,8.5-8.3
		c6.2,0,6,4,4.7,9.3L110.2,303.6L110.2,303.6z M127.7,296.3L127.7,296.3c1.3-1.5,2.6-2,4.4-2c2.2,0,3.8,1.3,3.3,3.6l-2.8,13.2H128
		l2.4-11.3c0.3-1.5,0.3-2.6-1.2-2.6c-1.5,0-2,1.1-2.3,2.6l-2.4,11.3h-4.6l3.5-16.4h4.6L127.7,296.3 M145.9,300.5
		c0.5-2.4,0.1-3.3-1.4-3.3c-2,0-2.5,1.7-3.2,5.1c-1.1,5-0.9,6.1,0.8,6.1c1.4,0,2.4-1.3,2.8-3.4h4.6c-0.9,4.5-3.8,6.4-8.1,6.4
		c-5.9,0-5.9-3.6-4.8-8.8c1-4.5,2.4-8.3,8.5-8.3c4.2,0,6.2,1.9,5.3,6.2L145.9,300.5 M161.1,301c0.3-1.6,0.9-3.9-1.3-3.9
		c-2.1,0-2.6,2.5-2.9,3.9H161.1 M156.4,303.6c-0.4,2-1,4.9,1,4.9c1.6,0,2.3-1.6,2.6-2.9h4.7c-0.4,1.8-1.3,3.3-2.7,4.3
		c-1.3,1-3,1.6-5.2,1.6c-5.9,0-5.9-3.6-4.8-8.8c1-4.5,2.4-8.3,8.5-8.3c6.2,0,6,4,4.7,9.3L156.4,303.6L156.4,303.6z M184.4,291.2
		c-1.8-0.1-2.4,0.6-2.7,2.2l-0.3,1.2h2.2l-0.6,2.8h-2.1l-2.9,13.6h-4.6l2.9-13.6h-2l0.6-2.8h2.1c0.9-4.1,1.7-6.4,6.6-6.4
		c0.6,0,1.1,0,1.6,0.1L184.4,291.2 M191.9,302.4c0.7-3.4,0.9-5.1-1-5.1c-2,0-2.5,1.7-3.2,5.1c-1.1,5-0.9,6.1,0.8,6.1
		C190.1,308.5,190.8,307.4,191.9,302.4 M183,302.7c1-4.5,2.4-8.3,8.5-8.3c6.1,0,5.9,3.8,4.9,8.3c-1.1,5.1-2.6,8.8-8.6,8.8
		C181.9,311.4,181.9,307.8,183,302.7L183,302.7z M204.6,294.6l-0.4,2.1h0.1c1.2-1.9,2.9-2.4,4.8-2.4l-0.9,4.1
		c-4-0.3-4.5,2.1-4.9,3.7l-1.9,8.9h-4.6l3.5-16.4L204.6,294.6 M218.5,306c-0.2,1.2-0.4,2.6,1.1,2.6c2.7,0,3.1-3.6,3.4-5.4
		C220.7,303.2,219.1,303,218.5,306 M226.5,308c-0.2,1-0.3,2.1-0.4,3.1h-4.3l0.3-2.2H222c-1.3,1.7-2.8,2.5-4.8,2.5
		c-3.2,0-3.9-2.4-3.2-5.2c1.2-5.4,5.4-5.7,9.7-5.6l0.3-1.3c0.3-1.4,0.3-2.4-1.3-2.4c-1.6,0-2,1.2-2.3,2.5h-4.5c0.4-2,1.3-3.3,2.5-4
		c1.2-0.8,2.8-1.1,4.5-1.1c5.8,0,6,2.5,5.4,5.5L226.5,308L226.5,308z M244.7,300.5c0.5-2.4,0.1-3.3-1.4-3.3c-2,0-2.5,1.7-3.2,5.1
		c-1.1,5-0.9,6.1,0.8,6.1c1.4,0,2.4-1.3,2.8-3.4h4.6c-0.9,4.5-3.8,6.4-8.1,6.4c-5.9,0-5.9-3.6-4.8-8.8c1-4.5,2.4-8.3,8.5-8.3
		c4.2,0,6.2,1.9,5.3,6.2L244.7,300.5 M269.9,306c-0.3,1.2-0.4,2.6,1.1,2.6c2.7,0,3.1-3.6,3.4-5.4C272.1,303.2,270.5,303,269.9,306
		 M277.9,308c-0.2,1-0.3,2.1-0.4,3.1h-4.3l0.3-2.2h-0.1c-1.3,1.7-2.8,2.5-4.8,2.5c-3.2,0-3.9-2.4-3.2-5.2c1.2-5.4,5.4-5.7,9.7-5.6
		l0.3-1.3c0.3-1.4,0.3-2.4-1.3-2.4c-1.6,0-2,1.2-2.3,2.5h-4.5c0.4-2,1.3-3.3,2.5-4c1.2-0.8,2.8-1.1,4.5-1.1c5.8,0,6,2.5,5.4,5.5
		L277.9,308L277.9,308z M288,296.3L288,296.3c1.3-1.5,2.6-2,4.4-2c2.2,0,3.8,1.3,3.3,3.6l-2.8,13.2h-4.6l2.4-11.3
		c0.3-1.5,0.3-2.6-1.2-2.6c-1.5,0-2,1.1-2.3,2.6l-2.4,11.3h-4.6l3.5-16.4h4.6L288,296.3 M302.4,308c1.7,0,2.3-1.7,3-5.2
		c0.8-3.6,1-5.7-0.7-5.7c-1.7,0-2.3,1.2-3.3,6.2C301.1,304.9,300.2,308,302.4,308 M311.7,294.7l-3.6,17.1c-0.2,1.1-1.1,5.6-7.4,5.6
		c-3.4,0-6.2-0.9-5.4-4.9h4.5c-0.1,0.7-0.2,1.3,0,1.7c0.2,0.4,0.7,0.7,1.4,0.7c1.1,0,1.9-1.1,2.3-2.7l0.7-3.2H304
		c-1,1.3-2.4,1.9-3.9,1.9c-5,0-3.8-4.6-3.1-8.3c0.8-3.6,1.8-8.2,6.6-8.2c1.6,0,2.9,0.7,3.2,2.2h0.1l0.4-1.9L311.7,294.7L311.7,294.7
		L311.7,294.7L311.7,294.7z M327.1,296.3L327.1,296.3c1.3-1.5,2.6-2,4.4-2c2.2,0,3.8,1.3,3.3,3.6l-2.8,13.2h-4.6l2.4-11.3
		c0.3-1.5,0.3-2.6-1.2-2.6c-1.5,0-2,1.1-2.3,2.6l-2.4,11.3h-4.6l3.5-16.4h4.6L327.1,296.3 M341.6,308c1.7,0,2.3-1.7,3-5.2
		c0.8-3.6,1-5.7-0.6-5.7c-1.7,0-2.3,1.2-3.3,6.2C340.3,304.9,339.4,308,341.6,308 M350.9,294.7l-3.6,17.1c-0.2,1.1-1.1,5.6-7.4,5.6
		c-3.4,0-6.2-0.9-5.4-4.9h4.5c-0.1,0.7-0.2,1.3,0,1.7c0.2,0.4,0.7,0.7,1.4,0.7c1.1,0,1.9-1.1,2.3-2.7l0.7-3.2h-0.1
		c-1,1.3-2.4,1.9-3.9,1.9c-5,0-3.8-4.6-3.1-8.3c0.8-3.6,1.8-8.2,6.6-8.2c1.6,0,2.9,0.7,3.2,2.2h0.1l0.4-1.9L350.9,294.7L350.9,294.7
		L350.9,294.7L350.9,294.7z M358.1,294.7h4.6l-0.4,12.4h0.1l5.5-12.4h4.9l0.1,12.4h0.1l5-12.4h4.4l-7.8,16.4h-4.8l-0.5-10.9H369
		l-5.5,10.9h-4.9L358.1,294.7 M390.1,302.4c0.7-3.4,0.9-5.1-1-5.1c-2,0-2.5,1.7-3.2,5.1c-1.1,5-0.9,6.1,0.8,6.1
		C388.4,308.5,389,307.4,390.1,302.4 M381.2,302.7c1-4.5,2.4-8.3,8.5-8.3c6.1,0,5.9,3.8,4.9,8.3c-1.1,5.1-2.6,8.8-8.6,8.8
		S380.1,307.8,381.2,302.7L381.2,302.7z M403.1,294.7l-0.5,2.1h0.1c1.2-1.9,2.9-2.4,4.8-2.4l-0.9,4.1c-4-0.3-4.5,2.1-4.9,3.7
		l-1.9,8.9h-4.6l3.5-16.4L403.1,294.7 M261.5,294.3c-1.7,0-3.1,0.5-4.3,2h-0.1l1.7-8h-4.6l-4.8,22.8h4.6l2.4-11.3
		c0.3-1.5,0.8-2.6,2.3-2.6c1.5,0,1.5,1.1,1.2,2.6l-2.4,11.3h4.6l2.8-13.2C265.3,295.6,263.7,294.3,261.5,294.3 M410.8,288.3
		l-4.8,22.8h4.6l4.8-22.8H410.8 M423,302.7c-0.9,4.1-1.5,5.9-3.1,5.9c-1.7,0-1.6-1.7-0.7-5.9c0.7-3.3,1.1-5.6,3.1-5.6
		C424.3,297.2,423.7,299.4,423,302.7 M426.1,288.3l-1.7,7.9h-0.1c-0.6-1.4-1.7-1.9-3.3-1.9c-4.6,0-5.6,5.1-6.3,8.4
		c-0.7,3.4-2,8.7,2.7,8.7c1.8,0,3.1-0.6,4.3-2.1h0.1l-0.4,1.8h4.4l4.8-22.8L426.1,288.3L426.1,288.3L426.1,288.3z"/>
</g>
</svg>

<svg width="100%" height="100%" viewBox="0 0 500 500" version="1.1" xmlns="http://www.w3.org/2000/svg" xmlns:xlink="http://www.w3.org/1999/xlink" xml:space="preserve" xmlns:serif="http://www.serif.com/" style="fill-rule:evenodd;clip-rule:evenodd;stroke-linejoin:round;stroke-miterlimit:2;">
    <g transform="matrix(5.55137,0,0,5.33804,-374.955,-982.512)">
        <g id="XMLID_1_">
            <path id="XMLID_15_" d="M92.8,215.3L93.1,215.6C102.2,223.2 112.1,222.5 119.6,217.5C124.3,214.4 145.7,200.1 157.8,192.1L157.8,184.1L67.7,184.1L67.7,205.3C73.2,204.4 82.1,205.3 92.8,215.3M126.7,250.6L116.1,240.4C114.6,239 113.3,238 113.1,237.8C104.4,231.7 96.3,233.5 92.8,234.8C91.7,235.2 90.7,235.8 90,236.3L67.8,251.2L67.8,278.1L157.9,278.1L157.9,258.7C155.8,260 143.6,266.6 126.7,250.6M92,217.7C91.5,217.3 91,216.8 90.5,216.4C79.9,208.2 69.8,212.2 67.7,213.2L67.7,222.5L72.9,219C72.9,219 80.9,213 93.4,219.2L92,217.7M104.5,229.7C104,229.3 103.6,228.9 103.1,228.4C93.7,220.4 84.5,222.4 80.8,223.8C79.7,224.2 78.7,224.8 78,225.3L67.8,232.1L67.8,241.6L84.8,230.1C84.8,230.1 92.7,224.2 105.1,230.1L104.5,229.7M157.8,239.7C154.3,242.1 150.7,244.5 149.2,245.5C146,247.6 138.6,253 126.2,247.1L127.7,248.5C128.2,249 128.9,249.6 129.6,250.1C138.5,256.7 147.9,255.8 155,251.1C156,250.4 156.9,249.9 157.7,249.3L157.8,239.7M157.8,220.6C150,225.8 139.5,232.9 137.5,234.2C134.3,236.3 126.8,241.7 114.7,236L116.1,237.3C116.3,237.4 116.4,237.6 116.6,237.7C126,245.6 136.3,244.4 143.4,239.7C147.4,237 153.1,233.2 157.8,230L157.8,220.6M157.8,201.6C146.6,209.1 128.2,221.5 125.9,222.9C122.7,225.1 115,230.5 103.1,224.8L104.5,226.2C105.4,227 106.5,228 107.8,228.8C116.1,234.1 124.7,233.1 131.7,228.4C136.8,225 149.2,216.8 157.7,211.1L157.7,201.6" style="fill:rgb(0,113,80);fill-rule:nonzero;"/>
        </g>
    </g>
</svg>
